src/images/send.svg

<svg xmlns="http://www.w3.org/2000/svg" height="24px" viewBox="0 -960 960 960" width="24px" fill="#FFFFFF"><path d="M120-160v-640l760 320-760 320Zm80-120 474-200-474-200v140l240 60-240 60v140Zm0 0v-400 400Z"/></svg>

<?xml version="1.0" encoding="UTF-8" standalone="no" ?>
<!DOCTYPE svg PUBLIC "-//W3C//DTD SVG 1.1//EN" "http://www.w3.org/Graphics/SVG/1.1/DTD/svg11.dtd">
<svg xmlns="http://www.w3.org/2000/svg" xmlns:xlink="http://www.w3.org/1999/xlink" version="1.1" width="1080" height="1080" viewBox="0 0 1080 1080" xml:space="preserve">
<desc>Created with Fabric.js 5.2.4</desc>
<defs>
</defs>
<g transform="matrix(1 0 0 1 540 540)" id="7d0fa01b-44d1-44ba-942a-f3b8417fbdd4"  >
<rect style="stroke: none; stroke-width: 1; stroke-dasharray: none; stroke-linecap: butt; stroke-dashoffset: 0; stroke-linejoin: miter; stroke-miterlimit: 4; fill: rgb(255,255,255); fill-rule: nonzero; opacity: 1; visibility: hidden;" vector-effect="non-scaling-stroke"  x="-540" y="-540" rx="0" ry="0" width="1080" height="1080" />
</g>
<g transform="matrix(1 0 0 1 540 540)" id="96971344-4357-470f-83f7-3d0a393979a6"  >
</g>
<g transform="matrix(1 0 0 1 540 540)" id="2ed4a733-6f62-46e8-9e5a-5451bb365fdd"  >
<path style="stroke: rgb(0,0,0); stroke-width: 0; stroke-dasharray: none; stroke-linecap: butt; stroke-dashoffset: 0; stroke-linejoin: miter; stroke-miterlimit: 4; fill: rgb(0,0,0); fill-rule: nonzero; opacity: 1;" vector-effect="non-scaling-stroke"  transform=" translate(-500, 480)" d="M 120 -160 L 120 -800 L 880 -480 L 120 -160 Z M 200 -280 L 674 -480 L 200 -680 L 200 -540 L 440 -480 L 200 -420 L 200 -280 Z M 200 -280 L 200 -680 L 200 -280 Z" stroke-linecap="round" />
</g>
</svg>
